; HEADER_BLOCK_START
; generated by OrcaSlicer 2.3.2 on 2026-04-26 at 10:26:15
; total layer number: 240
; filament_density: 1.04
; filament_diameter: 1.75
; max_z_height: 48.00
; filament: 1
; HEADER_BLOCK_END

; THUMBNAIL_BLOCK_START

;
; THUMBNAIL_BLOCK_END

; THUMBNAIL_BLOCK_START

;
; THUMBNAIL_BLOCK_END

; external perimeters extrusion width = 0.46mm
; perimeters extrusion width = 0.46mm
; infill extrusion width = 0.46mm
; solid infill extrusion width = 0.46mm
; top infill extrusion width = 0.40mm
; first layer extrusion width = 0.50mm

; external perimeters extrusion width = 0.46mm
; perimeters extrusion width = 0.46mm
; infill extrusion width = 0.46mm
; solid infill extrusion width = 0.46mm
; top infill extrusion width = 0.40mm
; first layer extrusion width = 0.50mm

; EXECUTABLE_BLOCK_START
EXCLUDE_OBJECT_DEFINE NAME=Voron_Design_Cube_v7.drc_id_0_copy_0 CENTER=116.206,99.7566 POLYGON=[[101.206,84.7566],[131.206,84.7566],[131.206,114.757],[101.206,114.757],[101.206,84.7566]]
EXCLUDE_OBJECT_DEFINE NAME=3DBenchy.drc_id_1_copy_0 CENTER=186.341,99.5831 POLYGON=[[156.341,90.3991],[156.344,90.3381],[156.348,90.2821],[156.353,90.2291],[156.355,90.2131],[156.361,90.1661],[156.37,90.1081],[156.387,90.0191],[156.4,89.9621],[156.415,89.9051],[156.422,89.8791],[156.439,89.8221],[156.468,89.7381],[156.482,89.7011],[156.504,89.6471],[156.511,89.6301],[156.527,89.5931],[156.551,89.5411],[156.572,89.4991],[156.605,89.4371],[156.62,89.4101],[156.632,89.3891],[156.681,89.3101],[156.699,89.2831],[156.713,89.2621],[156.747,89.2141],[156.782,89.1671],[156.825,89.1141],[156.85,89.0841],[156.88,89.0491],[156.92,89.0061],[156.934,88.9911],[156.983,88.9421],[157.003,88.9231],[157.046,88.8831],[157.079,88.8541],[157.124,88.8171],[157.135,88.8081],[157.17,88.7801],[157.228,88.7371],[157.276,88.7041],[157.32,88.6751],[157.386,88.6351],[157.413,88.6191],[157.465,88.5911],[157.49,88.5781],[157.517,88.5641],[157.539,88.5531],[157.595,88.5271],[157.653,88.5021],[157.703,88.4821],[157.758,88.4621],[157.77,88.4581],[157.813,88.4441],[157.826,88.4401],[157.882,88.4231],[157.889,88.4211],[157.926,88.4111],[157.938,88.4081],[157.966,88.4011],[157.982,88.3971],[158.052,88.3821],[158.139,88.3671],[186.154,84.4691],[186.397,84.4361],[186.641,84.4041],[186.885,84.3741],[187.224,84.3351],[187.447,84.3111],[187.692,84.2851],[187.938,84.2611],[188.184,84.2391],[188.429,84.2181],[188.595,84.2051],[188.675,84.1991],[188.865,84.1851],[188.921,84.1811],[189.168,84.1641],[189.329,84.1541],[189.413,84.1491],[189.574,84.1401],[189.831,84.1271],[189.939,84.1221],[189.961,84.1211],[190.097,84.1151],[190.248,84.1091],[190.392,84.1041],[190.509,84.1001],[190.575,84.0981],[190.684,84.0951],[190.802,84.0921],[190.89,84.0901],[191.031,84.0871],[191.223,84.0841],[191.404,84.0821],[191.522,84.0811],[191.92,84.0811],[192.276,84.0831],[192.711,84.0911],[192.791,84.0931],[193.147,84.1031],[193.254,84.1071],[193.582,84.1201],[194.018,84.1411],[194.351,84.1611],[194.434,84.1661],[194.544,84.1731],[194.717,84.1851],[194.837,84.1941],[194.983,84.2051],[195.07,84.2121],[195.251,84.2271],[195.381,84.2381],[196.174,84.3631],[196.183,84.3651],[196.611,84.4711],[196.719,84.4981],[196.937,84.5531],[197.079,84.5901],[197.155,84.6101],[197.309,84.6511],[197.59,84.7281],[197.766,84.7781],[198.022,84.8531],[198.238,84.9171],[198.452,84.9831],[198.674,85.0531],[198.9,85.1261],[199.094,85.1901],[199.35,85.2771],[199.52,85.3361],[199.574,85.3551],[199.742,85.4151],[199.943,85.4881],[200.164,85.5701],[200.375,85.6501],[200.575,85.7281],[200.685,85.7711],[200.785,85.8111],[200.795,85.8151],[201.004,85.8991],[201.213,85.9851],[201.268,86.0081],[201.476,86.0961],[201.683,86.1861],[201.889,86.2761],[202.299,86.4621],[202.502,86.5571],[202.705,86.6531],[202.907,86.7511],[203.108,86.8501],[203.309,86.9501],[203.508,87.0521],[203.707,87.1551],[203.905,87.2601],[204.103,87.3661],[204.299,87.4731],[204.495,87.5821],[204.885,87.8041],[205.079,87.9171],[205.272,88.0321],[205.464,88.1481],[205.656,88.2661],[205.847,88.3841],[206.038,88.5051],[206.227,88.6261],[206.416,88.7501],[206.604,88.8741],[206.792,89.0001],[206.979,89.1271],[207.165,89.2561],[207.35,89.3861],[207.534,89.5171],[207.718,89.6501],[207.901,89.7841],[208.084,89.9201],[208.265,90.0571],[208.446,90.1951],[208.626,90.3351],[208.805,90.4761],[208.984,90.6191],[209.162,90.7631],[209.339,90.9081],[209.515,91.0551],[209.865,91.3531],[210.039,91.5041],[210.212,91.6571],[210.384,91.8111],[210.556,91.9671],[210.67,92.0721],[210.839,92.2281],[211.007,92.3861],[211.173,92.5451],[211.338,92.7051],[211.503,92.8661],[211.666,93.0281],[211.828,93.1921],[211.989,93.3561],[212.149,93.5221],[212.308,93.6891],[212.466,93.8571],[212.623,94.0261],[212.779,94.1971],[212.934,94.3681],[213.087,94.5411],[213.24,94.7151],[213.392,94.8891],[213.542,95.0661],[213.691,95.2431],[213.84,95.4211],[213.987,95.6001],[214.133,95.7811],[214.278,95.9631],[214.422,96.1461],[214.565,96.3301],[214.706,96.5151],[214.847,96.7011],[214.987,96.8881],[215.125,97.0761],[215.262,97.2661],[215.398,97.4571],[215.533,97.6481],[215.667,97.8411],[215.8,98.0351],[215.931,98.2301],[215.96,98.2751],[215.993,98.3281],[216.024,98.3811],[216.054,98.4351],[216.083,98.4901],[216.11,98.5451],[216.135,98.6021],[216.16,98.6591],[216.176,98.7001],[216.198,98.7581],[216.218,98.8161],[216.237,98.8751],[216.254,98.9341],[216.27,98.9961],[216.284,99.0531],[216.296,99.1131],[216.308,99.1761],[216.317,99.2351],[216.325,99.2961],[216.332,99.3571],[216.337,99.4191],[216.34,99.4881],[216.342,99.5491],[216.342,99.6101],[216.341,99.6711],[216.338,99.7321],[216.333,99.7921],[216.327,99.8531],[216.319,99.9141],[216.31,99.9741],[216.3,100.032],[216.287,100.095],[216.274,100.152],[216.258,100.215],[216.243,100.269],[216.225,100.328],[216.205,100.386],[216.184,100.444],[216.162,100.501],[216.138,100.557],[216.113,100.613],[216.086,100.669],[216.058,100.723],[216.028,100.777],[215.997,100.831],[215.965,100.884],[215.931,100.936],[215.814,101.11],[215.681,101.304],[215.547,101.497],[215.413,101.689],[215.277,101.88],[215.139,102.07],[215.001,102.259],[214.862,102.447],[214.721,102.633],[214.579,102.819],[214.436,103.003],[214.292,103.187],[214,103.551],[213.852,103.731],[213.703,103.911],[213.552,104.089],[213.401,104.266],[213.248,104.443],[213.094,104.618],[212.939,104.792],[212.824,104.92],[212.667,105.092],[212.509,105.263],[212.35,105.433],[212.19,105.601],[212.029,105.769],[211.867,105.935],[211.704,106.099],[211.541,106.263],[211.376,106.424],[211.211,106.585],[211.045,106.744],[210.877,106.902],[210.709,107.058],[210.54,107.213],[210.37,107.367],[210.199,107.52],[210.027,107.672],[209.854,107.822],[209.68,107.971],[209.505,108.119],[209.329,108.265],[209.152,108.41],[208.974,108.554],[208.796,108.697],[208.616,108.839],[208.435,108.979],[208.253,109.118],[208.07,109.256],[207.886,109.393],[207.701,109.528],[207.515,109.663],[207.328,109.795],[207.141,109.927],[206.952,110.057],[206.762,110.186],[206.572,110.314],[206.38,110.44],[206.188,110.565],[205.994,110.689],[205.8,110.811],[205.605,110.932],[205.408,111.052],[205.211,111.17],[205.013,111.287],[204.814,111.402],[204.614,111.517],[204.414,111.629],[204.212,111.741],[203.936,111.89],[203.737,111.995],[203.538,112.099],[203.338,112.201],[203.137,112.302],[202.936,112.401],[202.734,112.499],[202.532,112.595],[202.329,112.69],[202.125,112.783],[201.921,112.875],[201.716,112.966],[201.511,113.055],[201.305,113.142],[201.098,113.228],[201.008,113.265],[200.891,113.313],[200.683,113.396],[200.464,113.481],[200.345,113.527],[200.046,113.64],[199.835,113.717],[199.635,113.789],[199.413,113.867],[199.226,113.931],[199.211,113.936],[198.998,114.007],[198.785,114.077],[198.548,114.153],[198.347,114.215],[198.321,114.223],[198.093,114.292],[197.865,114.359],[197.637,114.424],[197.484,114.467],[197.407,114.488],[197.266,114.526],[197.048,114.584],[196.948,114.61],[196.83,114.64],[196.611,114.695],[196.185,114.801],[195.658,114.902],[195.648,114.903],[195.392,114.927],[195.345,114.931],[195.152,114.947],[195.067,114.954],[194.903,114.967],[194.823,114.973],[194.476,114.997],[194.03,115.024],[193.991,115.026],[193.606,115.045],[193.468,115.051],[193.12,115.064],[192.906,115.07],[192.685,115.076],[192.249,115.083],[191.863,115.085],[191.519,115.085],[191.219,115.082],[191.163,115.081],[190.941,115.077],[190.798,115.074],[190.68,115.071],[190.508,115.066],[190.418,115.063],[190.272,115.058],[190.094,115.051],[190.07,115.05],[189.912,115.043],[189.804,115.038],[189.674,115.031],[189.475,115.02],[189.231,115.006],[188.986,114.99],[188.971,114.989],[188.684,114.968],[188.438,114.949],[188.191,114.928],[188.009,114.911],[187.945,114.905],[187.765,114.888],[187.521,114.863],[187.453,114.856],[187.277,114.837],[186.961,114.801],[186.715,114.771],[186.546,114.749],[186.224,114.707],[158.169,110.803],[158.134,110.798],[158.084,110.79],[158.027,110.779],[157.995,110.772],[157.938,110.758],[157.926,110.755],[157.889,110.745],[157.878,110.742],[157.822,110.725],[157.77,110.708],[157.758,110.704],[157.703,110.684],[157.653,110.664],[157.595,110.639],[157.539,110.613],[157.497,110.592],[157.446,110.565],[157.428,110.555],[157.386,110.531],[157.334,110.5],[157.32,110.491],[157.285,110.468],[157.276,110.462],[157.228,110.429],[157.189,110.4],[157.181,110.394],[157.135,110.358],[157.097,110.327],[157.09,110.321],[157.046,110.283],[157.003,110.243],[156.982,110.223],[156.961,110.202],[156.934,110.175],[156.899,110.138],[156.88,110.117],[156.86,110.094],[156.822,110.049],[156.786,110.003],[156.772,109.985],[156.748,109.953],[156.714,109.905],[156.684,109.861],[156.65,109.807],[156.62,109.756],[156.592,109.705],[156.572,109.667],[156.565,109.653],[156.56,109.643],[156.537,109.595],[156.511,109.537],[156.49,109.486],[156.469,109.432],[156.45,109.376],[156.449,109.373],[156.432,109.321],[156.416,109.265],[156.401,109.208],[156.387,109.147],[156.376,109.09],[156.367,109.037],[156.366,109.031],[156.358,108.979],[156.353,108.936],[156.35,108.908],[156.344,108.828],[156.342,108.791],[156.341,108.762],[156.341,90.3991]]
M73 P0 R22
;TYPE:Custom
M104 S0 ; Stops PS/SS from sending temp waits separately
M140 S0
PRINT_START BED=90 EXTRUDER=280 CHAMBER=75
G90
G21
M83 ; use relative distances for extrusion
M106 P3 S60
; was 220
;LAYER_CHANGE
;Z:0.2
;HEIGHT:0.2
;BEFORE_LAYER_CHANGE
;0.2
G92 E0

;AFTER_LAYER_CHANGE
;0.2
;_SET_FAN_SPEED_CHANGING_LAYER
SET_VELOCITY_LIMIT ACCEL=25000
SET_VELOCITY_LIMIT SQUARE_CORNER_VELOCITY=45
; printing object 3DBenchy.drc id:1 copy 0
G1 E-.4 F2400
EXCLUDE_OBJECT_START NAME=3DBenchy.drc_id_1_copy_0
G1 X186.527 Y98.793 F60000
G1 Z.2 F30000
G1 Z.2
G1 E.4 F3000
;TYPE:Outer wall
;WIDTH:0.5
G1 F18000
G1 X186.685 Y98.569 E.01
G1 X186.95 Y98.052 E.02121
G1 X187.276 Y97.792 E.01519
G3 X187.808 Y97.757 I.306 J.584 E.02004
G1 X188.07 Y97.927 E.0114
G1 X188.263 Y98.186 E.01177
G3 X188.257 Y98.849 I-1.246 J.32 E.02448
G3 X187.56 Y100.046 I-15.665 J-8.317 E.05054
G2 X187.522 Y100.468 I.378 J.247 E.01609
G1 X188.205 Y101.604 E.04837
G1 X188.354 Y101.936 E.01329
G3 X188.12 Y102.865 I-.861 J.276 E.03681
G3 X187.057 Y102.848 I-.521 J-.663 E.04196
G3 X186.713 Y102.191 I1.08 J-.984 E.02738
G2 X186.445 Y101.8 I-1.28 J.591 E.01736
G2 X186.288 Y102.055 I.683 J.595 E.01098
G1 X186.288 Y102.2 E.00529
G1 X186.036 Y102.622 E.01791
G1 X185.796 Y102.882 E.01291
G1 X185.567 Y102.998 E.00936
G1 X185.302 Y103.002 E.00966
G1 X185.001 Y102.9 E.0116
G3 X184.785 Y102.651 I.273 J-.454 E.01225
G1 X184.686 Y102.371 E.01083
G1 X184.689 Y102.145 E.00825
G1 X184.894 Y101.534 E.02349
G1 X185.24 Y100.853 E.02789
G1 X185.566 Y100.386 E.02078
G2 X185.567 Y100.32 I-.035 J-.033 E.00262
G3 X184.765 Y98.942 I13.105 J-8.547 E.0582
G3 X184.656 Y98.344 I1.012 J-.494 E.02247
G1 X184.745 Y98.094 E.00968
G1 X184.969 Y97.863 E.01172
G3 X185.315 Y97.723 I.535 J.825 E.01372
G1 X185.57 Y97.712 E.0093
G1 X185.752 Y97.774 E.00703
G3 X186.137 Y98.105 I-.631 J1.124 E.01866
G2 X186.502 Y98.762 I2.159 J-.769 E.02752
G1 X186.539 Y98.739
G1 E-.4 F2400
G1 X184.336 Y100.797 F30000
G1 E.4 F3000
G1 F18000
G1 X184.153 Y101.152
G3 X184.311 Y101.501 I-.973 J.651 E.01403
G3 X184.068 Y102.855 I-1.811 J.374 E.05142
G1 X183.764 Y103.12 E.01473
G3 X182.135 Y102.905 I-.679 J-1.131 E.06471
G1 X181.893 Y102.515 E.01675
G1 X181.856 Y102.36 E.00583
G3 X181.905 Y101.556 I1.871 J-.288 E.02962
G3 X182.376 Y100.929 I1.251 J.45 E.02902
G1 X182.729 Y100.703 E.0153
G3 X183.075 Y100.637 I.308 J.676 E.01297
G3 X184.13 Y101.119 I.105 J1.166 E.04428
G1 X184.2 Y101.149
G1 E-.4 F2400
G1 X176.58 Y98.678 F30000
G1 E.4 F3000
;TYPE:Inner wall
G1 F18000
G1 X176.579 Y99.24 E.0205
G1 X176.383 Y99.298 E.00747
G3 X176.193 Y99.058 I16.249 J-13.049 E.01116
G1 X176.262 Y98.933 E.00521
G1 X176.549 Y98.703 E.01341
G1 E-.4 F2400
G1 X176.74 Y96.635 F30000
G1 E.4 F3000
;TYPE:Outer wall
G1 F18000
G1 X177.14 Y96.651
G3 X177.386 Y96.407 I.606 J.365 E.01274
G1 X177.699 Y96.286 E.01225
G1 X178.023 Y96.252 E.01189
G1 X179.655 Y96.289 E.05957
G3 X180.619 Y96.48 I-.274 J3.919 E.03596
G1 X181.025 Y96.678 E.01648
G3 X182.093 Y98.138 I-1.594 J2.286 E.0672
G1 X182.171 Y98.419 E.01066
G1 X182.27 Y99.044 E.02308
G1 X182.279 Y99.755 E.02596
G1 X182.191 Y100.295 E.01997
G2 X181.909 Y101.121 I5.691 J2.398 E.03185
G1 X181.664 Y101.591 E.01933
G1 X181.136 Y102.262 E.03116
G1 X180.715 Y102.552 E.01865
G1 X180.254 Y102.713 E.01782
G3 X178.339 Y102.824 I-1.414 J-7.872 E.07015
G1 X177.811 Y102.866 E.01934
G3 X177.161 Y102.419 I.01 J-.71 E.03052
G3 X177.059 Y101.863 I1.319 J-.531 E.02075
G1 X177.076 Y101.255 E.02221
G1 X177.081 Y97.625 E.13242
G1 X177.039 Y97 E.02287
G3 X177.12 Y96.686 I.707 J.016 E.01196
G1 X177.123 Y96.621
G1 E-.4 F2400
G1 X174.168 Y97.761 F30000
G1 E.4 F3000
G1 F18000
G2 X173.969 Y97.7 I-.172 J.205 E.00778
G1 X173.792 Y97.743 E.00663
G3 X172.894 Y98.139 I-1.418 J-1.998 E.03606
G1 X172.636 Y98.057 E.0099
G3 X172.245 Y97.654 I.818 J-1.184 E.02062
G1 X172.179 Y97.443 E.00807
G3 X172.243 Y96.851 I1.319 J-.156 E.02191
G3 X173.279 Y96.176 I1.47 J1.123 E.04601
G1 X173.645 Y96.11 E.01356
G3 X175.139 Y96.278 I.391 J3.24 E.05534
G3 X176.087 Y97.439 I-.599 J1.457 E.057
G3 X176.012 Y98.397 I-2.866 J.257 E.03523
G1 X175.942 Y98.549 E.00609
G2 X175.794 Y98.747 I.167 J.279 E.00924
G3 X175.372 Y99.083 I-.769 J-.533 E.01995
G1 X175.548 Y99.16 E.007
G1 X175.788 Y99.351 E.01119
G3 X176.087 Y99.761 I-6.235 J4.872 E.01852
G3 X176.349 Y100.703 I-2.613 J1.233 E.03583
G1 X176.326 Y101.145 E.01616
G3 X175.585 Y102.482 I-2.276 J-.388 E.05684
G3 X174.145 Y103.004 I-1.446 J-1.741 E.05701
G3 X172.716 Y102.723 I-.17 J-2.916 E.05371
G3 X172.14 Y101.554 I.528 J-.986 E.05075
G1 X172.238 Y101.304 E.0098
G1 X172.414 Y101.105 E.00968
G1 X172.708 Y100.962 E.01194
G3 X173.632 Y101.125 I.284 J1.085 E.03532
G1 X174.013 Y101.398 E.01708
G2 X174.542 Y101.036 I.06 J-.481 E.0256
G2 X174.418 Y100.503 I-.679 J-.123 E.02053
G2 X173.793 Y100.11 I-.796 J.574 E.02762
G1 X173.372 Y100.035 E.01559
G3 X172.944 Y99.781 I.155 J-.747 E.0185
G1 X172.82 Y99.487 E.01163
G3 X172.965 Y98.785 I1.16 J-.126 E.02658
G3 X173.309 Y98.506 I.516 J.285 E.01657
G3 X173.898 Y98.349 I.75 J1.622 E.02235
G2 X174.262 Y97.999 I-.1 J-.468 E.01938
G2 X174.196 Y97.789 I-.266 J-.033 E.00829
G1 X174.145 Y97.768
G1 E-.4 F2400
G1 X191.617 Y105.164 F30000
G1 E.4 F3000
;TYPE:Inner wall
G1 F18000
G1 X191.707 Y105.014 E.00637
G2 X192.501 Y103.083 I-16.923 J-8.089 E.07622
G1 X192.68 Y103.371 E.01237
G1 X192.978 Y103.669 E.01538
G1 X193.449 Y103.926 E.01956
G1 X194.094 Y104.034 E.02387
G3 X191.748 Y105.314 I-7.2 J-10.407 E.09766
G1 X191.644 Y105.194 E.0058
G1 E-.4 F2400
G1 X166.893 Y102.957 F30000
G1 E.4 F3000
G1 F18000
G1 X167.189 Y103.458 E.02122
G1 X167.581 Y103.836 E.01989
G1 X168.009 Y104.077 E.01792
G2 X169.324 Y104.257 I1.022 J-2.57 E.04891
G1 X169.814 Y104.14 E.01837
G1 X170.412 Y103.811 E.02489
G1 X170.903 Y103.259 E.02697
G1 X171.033 Y102.958 E.01197
G1 X171.188 Y103.242 E.01179
G1 X171.554 Y103.633 E.01954
G2 X172.391 Y104.139 I1.972 J-2.318 E.03584
G1 X173.02 Y104.329 E.02399
G2 X175.463 Y104.179 I.941 J-4.649 E.09031
